svgs/light/book-atlas.svg

<svg xmlns="http://www.w3.org/2000/svg" viewBox="0 0 448 512"><!-- Font Awesome Pro 6.0.0-alpha2 by @fontawesome - https://fontawesome.com License - https://fontawesome.com/license (Commercial License) --><path d="M224 80C153.25 80 96 137.25 96 208S153.25 336 224 336S352 278.75 352 208S294.75 80 224 80ZM129.625 224H168.75C170.25 251 175.25 275.375 182.875 294.375C155.25 281.125 134.875 255.25 129.625 224ZM168.75 192H129.625C134.875 160.75 155.25 134.875 182.875 121.625C175.25 140.625 170.25 165 168.75 192ZM224 302.75C216.25 295.25 203.25 268.25 200.625 224H247.375C244.75 268.25 231.75 295.25 224 302.75ZM200.5 192C203.25 147.75 216.25 120.75 224 113.25C231.75 120.75 244.75 147.75 247.375 192H200.5ZM265.125 294.375C272.75 275.375 277.75 251 279.25 224H318.375C313.125 255.25 292.75 281.125 265.125 294.375ZM279.25 192C277.75 165 272.75 140.625 265.125 121.625C292.75 134.875 313.125 160.75 318.375 192H279.25ZM448 368V48C448 21.49 426.51 0 400 0H80C35.816 0 0 35.816 0 80V448C0 483.346 28.654 512 64 512H432C440.844 512 448 504.844 448 496S440.844 480 432 480H416V413.053C434.584 406.426 448 388.832 448 368ZM384 480H64C46.359 480 32 465.641 32 448S46.359 416 64 416H384V480ZM400 384H64C52.291 384 41.451 387.389 32 392.9V80C32 53.49 53.49 32 80 32H400C408.836 32 416 39.164 416 48V368C416 376.836 408.836 384 400 384Z"/></svg>

<svg xmlns="http://www.w3.org/2000/svg" viewBox="0 0 448 512"><!--! Font Awesome Pro 6.3.0 by @fontawesome - https://fontawesome.com License - https://fontawesome.com/license (Commercial License) Copyright 2023 Fonticons, Inc. --><path d="M224 80c-70.75 0-128 57.25-128 128s57.25 128 128 128s128-57.25 128-128S294.8 80 224 80zM129.6 224h39.13c1.5 27 6.5 51.38 14.12 70.38C155.3 281.1 134.9 255.3 129.6 224zM168.8 192H129.6c5.25-31.25 25.62-57.13 53.25-70.38C175.3 140.6 170.3 165 168.8 192zM224 302.8C216.3 295.3 203.3 268.3 200.6 224h46.75C244.8 268.3 231.8 295.3 224 302.8zM200.5 192C203.3 147.8 216.3 120.8 224 113.3C231.8 120.8 244.8 147.8 247.4 192H200.5zM265.1 294.4C272.8 275.4 277.8 251 279.3 224h39.13C313.1 255.3 292.8 281.1 265.1 294.4zM279.3 192c-1.5-27-6.5-51.38-14.12-70.38c27.62 13.25 48 39.13 53.25 70.38H279.3zM448 368v-320C448 21.49 426.5 0 400 0h-320C35.82 0 0 35.82 0 80V448c0 35.35 28.65 64 64 64h368c8.844 0 16-7.156 16-16S440.8 480 432 480H416v-66.95C434.6 406.4 448 388.8 448 368zM384 480H64c-17.64 0-32-14.36-32-32s14.36-32 32-32h320V480zM400 384H64c-11.71 0-22.55 3.389-32 8.9V80C32 53.49 53.49 32 80 32h320C408.8 32 416 39.16 416 48v320C416 376.8 408.8 384 400 384z"/></svg>
